X:36
T:Polska 
T:ur 75 polskor från Uppland och Södermanland (nr 36)
B:75 polskor från Uppland och Södermanland, nr 36
N:Notboken som pdf. 
M:3/4
R:Polska
O:Uppland / Södermanland
Z:Nils L
N:Se även +, + och +
M:3/4
L:1/16
K:Am
!p!A2Ac B2Bd c2A2 | !<(!c2c2 d2d2 e4!<)! | A2Ac B2Bd c2A2 | c2c2 d2d2 e4 |
|: !f!c2{/d}cB c2e2 g2e2 | d2f2 a2g2 e4 | c2cd B2Bc A2AB | cBA^G (G2A2) A2z2 :|

